X: 1
T: Irish Lamentations
M: 3/4
L: 1/8
R: waltz
K: Gmaj
GA | &quot;G&quot;B2 B2 Bc | B3 A G2 | &quot;Am&quot;a2 A2 A2 | &quot;D7&quot;A4 GA |
&quot;G&quot;B2 cB AG | &quot;C&quot;E4 GE | &quot;D7&quot;D2 G2 G2 | &quot;G&quot;G4 :|
Bc | &quot;G&quot;d2 d2 d2 | de dB AB | &quot;C&quot;G2 g2 g2 | &quot;D7&quot;g4 ed |
&quot;G&quot;B2 d2 d2 | de dB AB | &quot;C&quot;G2 g2 g2 | &quot;D7&quot;g4 de |
&quot;F&quot;=f3 e fg | &quot;C&quot;e2 ed eg | &quot;G&quot;d2 ed cB | &quot;D7&quot;A4 GA |
&quot;G&quot;B2 cB AG | &quot;C&quot;E3 GFE | &quot;D7&quot;D2 G2 G2 | &quot;G&quot;G4 :|
